build/logo/DionSolid.svg

<svg xmlns="http://www.w3.org/2000/svg" fill="none" viewBox="0 0 24 24" focusable="false"><path d="M0 0H24V24H0z"/><path fill="#74767B" fill-rule="evenodd" d="M6 3L18 3C19.6567 3 21 4.34314 21 6L21 18C21 19.6569 19.6567 21 18 21L6 21C4.34326 21 3 19.6569 3 18L3 6C3 4.34314 4.34326 3 6 3ZM10.5391 12.0443L10.5391 15.6177C10.5354 15.7115 10.4956 15.8004 10.4282 15.866C10.3608 15.9315 10.271 15.9689 10.1768 15.9702L6.36792 15.9702C6.27026 15.9702 6.17676 16.0089 6.10767 16.0778C6.03882 16.1466 6 16.2401 6 16.3374L6 18.4474C6 18.5447 6.03882 18.6382 6.10767 18.707C6.17676 18.7759 6.27026 18.8146 6.36792 18.8146L6.77612 18.8146C8.58081 18.8146 10.3118 18.0988 11.5881 16.8246C12.8643 15.5504 13.5813 13.8223 13.5813 12.0204L13.5813 8.45618C13.5813 8.35876 13.6199 8.26538 13.689 8.19653C13.7578 8.12756 13.8516 8.08887 13.949 8.08887L17.7322 8.08887C17.8298 8.08887 17.9233 8.05029 17.9924 7.98132C18.0613 7.91248 18.1001 7.81909 18.1001 7.72168L18.1001 5.61731C18.1001 5.5199 18.0613 5.42651 17.9924 5.35767C17.9233 5.2887 17.8298 5.25 17.7322 5.25L17.3442 5.25C15.5393 5.25 13.8086 5.96582 12.5322 7.23999C11.2561 8.51416 10.5391 10.2423 10.5391 12.0443ZM6.36353 8.07605L9.24341 8.07605C9.91748 8.07715 10.5698 7.83545 11.0815 7.39465C11.5933 6.95398 11.9307 6.34338 12.0325 5.67383C12.041 5.62122 12.0378 5.56738 12.0234 5.51611C12.009 5.46472 11.9836 5.41724 11.949 5.37683C11.9143 5.33643 11.8713 5.3042 11.823 5.28223C11.7744 5.26038 11.7219 5.24939 11.6689 5.25012L6.36353 5.25012C6.26709 5.25012 6.17456 5.28857 6.10645 5.35706C6.03833 5.42566 6 5.51855 6 5.61548L6 7.71069C6 7.8075 6.03833 7.90051 6.10645 7.96899C6.17456 8.03748 6.26709 8.07605 6.36353 8.07605ZM14.8425 15.9886L17.7087 15.9886C17.8059 15.9886 17.8989 16.0273 17.9673 16.0963C18.0359 16.1653 18.0745 16.2588 18.0745 16.3563L18.0745 18.4725C18.0745 18.5701 18.0359 18.6636 17.9673 18.7325C17.8989 18.8015 17.8059 18.8402 17.7087 18.8402L12.4075 18.8402C12.3542 18.8409 12.3013 18.8298 12.2527 18.8079C12.2041 18.7858 12.1606 18.7533 12.126 18.7126C12.0911 18.672 12.0654 18.6241 12.051 18.5725C12.0364 18.5209 12.0334 18.4667 12.042 18.4137C12.1431 17.7394 12.4812 17.1238 12.9951 16.6788C13.5088 16.2339 14.1643 15.989 14.8425 15.9886Z"/></svg>

<svg xmlns="http://www.w3.org/2000/svg" fill="none" viewBox="0 0 24 24" focusable="false"><path fill="#74767B" fill-rule="evenodd" d="M6 3h12c1.65 0 3 1.34 3 3v12c0 1.65-1.35 3-3 3H6c-1.66 0-3-1.35-3-3V6c0-1.66 1.34-3 3-3m4.53 9.04v3.57c0 .1-.04.19-.11.25-.06.07-.15.1-.25.11H6.36a.37.37 0 0 0-.26.1.37.37 0 0 0-.1.26v2.11c0 .1.03.19.1.26s.17.11.26.11h.41c1.81 0 3.54-.72 4.81-1.99 1.28-1.27 2-3 2-4.8V8.45c0-.1.04-.19.1-.26.07-.07.17-.11.26-.11h3.79c.1 0 .19-.03.26-.1s.11-.17.11-.26V5.61c0-.1-.04-.19-.11-.26a.35.35 0 0 0-.26-.1h-.39a6.794 6.794 0 0 0-6.81 6.79M6.36 8.07h2.88c.67 0 1.32-.24 1.84-.68.51-.44.85-1.05.95-1.72.01-.05 0-.11-.01-.16-.02-.05-.04-.1-.08-.14a.3.3 0 0 0-.12-.09.3.3 0 0 0-.16-.03h-5.3c-.1 0-.19.03-.26.1s-.1.16-.1.26v2.1c0 .09.03.19.1.25.07.07.16.11.26.11m8.48 7.91h2.86c.1 0 .19.04.26.11s.11.16.11.26v2.12c0 .1-.04.19-.11.26s-.16.11-.26.11h-5.3c-.05 0-.1-.02-.15-.04a.4.4 0 0 1-.13-.09.4.4 0 0 1-.07-.14.3.3 0 0 1-.01-.16c.1-.68.44-1.29.95-1.74.51-.44 1.17-.69 1.85-.69"/></svg>
